icons/apache/apache-line.svg

<svg xmlns="http://www.w3.org/2000/svg" viewBox="0 0 128 128"><path fill-rule="evenodd" d="M41.4933 98.5888C38.5578 106.826 34.2774 120.296 32.4 126.595C32.2509 127.095 32.1169 127.55 32 127.954C32.4161 127.849 32.9053 127.515 33.28 127.144C33.5605 126.866 33.7769 126.566 33.8506 126.326C36.6986 117.057 41.4773 102.173 47.6151 85.7033C53.0398 71.1474 59.5435 55.3554 66.7291 41.0966C66.7569 41.0414 66.7847 40.9863 66.8125 40.9311C66.8498 40.8572 66.8872 40.7832 66.9246 40.7093C71.3367 31.9861 75.9554 23.8191 80.7964 16.9099C80.822 16.8734 80.8477 16.8369 80.8733 16.8004C83.3699 13.2443 85.8726 10.029 88.5213 7.23006C86.0002 10.0112 83.6659 13.3394 81.2559 17.049C81.2287 17.0908 81.2015 17.1328 81.1743 17.1747C76.6384 24.1711 72.0467 32.467 67.8113 41.1578C67.7773 41.2276 67.7433 41.2974 67.7093 41.3673C67.6813 41.4248 67.6534 41.4824 67.6254 41.5399C60.0149 57.2113 53.3334 74.043 48.6896 86.7276C47.3324 90.4348 46.1347 93.8148 45.1525 96.6825C44.9948 97.1429 44.8427 97.5901 44.6963 98.0233C44.6269 98.2288 44.5588 98.4311 44.492 98.6302C45.0755 98.843 45.7445 99.4621 46.3775 100.241C47.015 101.025 47.6161 101.97 48.0565 102.825C48.0069 101.741 47.7339 100.678 47.2206 99.6931C47.0254 99.3186 46.7954 98.9556 46.5298 98.6073C46.3181 98.3298 46.0838 98.0617 45.8263 97.8045C45.7505 97.7288 45.6727 97.6541 45.5929 97.5803C45.6949 97.5845 45.7968 97.5883 45.8987 97.5917C46.2702 97.6041 46.6409 97.6109 47.0101 97.6117C52.3999 97.6233 57.4899 96.3494 60.6846 92.2894C61.2779 91.5355 61.8058 90.6854 62.2582 89.7297C61.5207 90.6137 60.7873 91.1565 60.0365 91.4894C59.5045 91.7253 58.9637 91.8558 58.4065 91.9278C57.7101 92.0177 56.9882 92.0161 56.226 92.0144C56.1215 92.0142 56.0162 92.014 55.9101 92.014L55.9882 91.9779C56.6672 91.6648 57.3776 91.3372 58.107 90.9566C59.3379 90.3144 60.6231 89.5214 61.9037 88.3926C63.2952 87.1661 64.3667 85.8326 65.3438 84.2423C65.8194 83.4684 66.2726 82.6337 66.7295 81.7209C66.0353 82.3884 65.326 83.0056 64.5882 83.5605C62.0594 85.4623 59.1956 86.6318 55.4576 86.5873C54.4922 86.5758 53.4684 86.4833 52.3771 86.3015C53.0621 86.1871 54.0741 85.9794 55.3125 85.5847C58.7343 84.4945 63.885 81.978 68.6452 76.0644C72.7933 70.9112 75.4849 64.2435 77.345 58.6389C77.493 58.1929 77.6357 57.7536 77.7736 57.3224C77.448 57.5074 77.0608 57.6833 76.636 57.846C76.6047 57.858 76.5733 57.8699 76.5417 57.8817C75.3878 58.3129 73.9753 58.6477 72.7641 58.8108C74.0532 58.3064 75.1769 57.6705 76.1577 56.9577C78.2714 55.4216 79.7211 53.5289 80.7312 51.8282C81.0931 51.2191 81.3985 50.6346 81.6579 50.0999C81.087 50.4669 80.5548 50.7932 80.0092 51.0822C79.9864 51.0942 79.9637 51.1062 79.9409 51.1181C78.7198 51.7567 77.4207 52.2106 75.4629 52.5202C76.8448 52.0078 78.2006 51.2222 79.3959 50.2744C80.3484 49.5192 81.199 48.6609 81.8799 47.7556C83.2157 45.9795 84.9621 42.1362 85.7836 39.2584C85.9264 38.7582 86.0413 38.2871 86.1212 37.8611C85.8439 38.0925 85.4312 38.3308 84.9374 38.562C84.528 38.7537 84.0629 38.9405 83.573 39.1144C82.2621 39.58 80.7738 39.9537 79.7015 40.083C79.7833 40.0465 79.8683 40.009 79.9563 39.9702C80.7822 39.6057 81.8773 39.1225 83.1032 38.2195C84.2952 37.3416 85.611 36.0668 86.9237 34.1185C91.2664 27.6731 94.523 20.3693 95.4693 15.2878C96.3694 10.4547 95.6857 6.88622 94.4351 4.42566C93.4241 2.43629 90.9305 0 88.5213 0C86.643 0 84.8146 1.60813 82.3747 4.07519C79.9347 6.54225 78.4278 8.37059 77.1244 10.0112C72.7026 15.5766 67.3554 22.958 62.1564 31.2957C53.8676 44.5886 45.9648 60.494 42.8186 76.2497C42.2751 78.9712 41.8668 81.6775 41.6282 84.3734C41.5838 84.8751 41.5453 85.3765 41.5128 85.8776C41.2629 85.4995 40.9592 85.1114 40.5956 84.7139C39.9841 84.0457 39.2031 83.351 38.2225 82.6335C37.5805 82.1637 36.853 81.6841 36.0317 81.1956C36.3208 81.572 36.8556 82.3313 37.4785 83.3292C39.1143 85.9498 41.358 90.2157 41.358 93.5123C40.7557 93.6329 39.4117 93.5958 37.8752 93.2693C37.0614 93.0963 36.1935 92.8422 35.3534 92.4872C36.0301 93.1218 36.7313 93.7066 37.471 94.2045C37.8712 94.4738 38.2826 94.7177 38.7075 94.9303C39.2642 95.2089 39.844 95.4337 40.452 95.5916C39.8444 95.6515 39.2409 95.7937 38.6373 96.0043C37.8862 96.2665 37.1348 96.6347 36.3752 97.0824C35.384 97.6666 34.3786 98.386 33.341 99.1817C34.5195 98.7173 35.6654 98.3105 36.7698 98.0116C38.1953 97.6259 39.5518 97.42 40.8203 97.5026C41.1652 97.525 41.5037 97.5688 41.8353 97.6361C41.7235 97.945 41.6094 98.2628 41.4933 98.5888ZM40.8628 96.5035C41.2587 96.5282 41.6494 96.578 42.0342 96.6561C42.2089 96.6915 42.3688 96.7726 42.4993 96.8884C43.8086 93.172 45.2042 89.3087 46.678 85.354C52.1593 70.6464 58.7464 54.6626 66.0322 40.258C70.4557 31.5124 75.0986 23.2992 79.9775 16.3361C82.5157 12.7136 85.0736 9.41836 87.795 6.54271C88.1717 6.14461 88.7987 6.12396 89.2008 6.49641C89.6029 6.86886 89.6303 7.4956 89.2622 7.90168C86.7963 10.6219 84.497 13.8957 82.0945 17.5938C77.5228 24.6307 72.8838 33.0139 68.6086 41.8047C60.9834 57.4838 54.2828 74.3585 49.6286 87.0714C48.3368 90.5998 47.1904 93.8298 46.2376 96.6012C51.1695 96.7244 55.6855 95.8174 58.7896 92.8823C57.9282 93.0198 57.0585 93.0172 56.2362 93.0146C56.1266 93.0143 56.0179 93.014 55.9101 93.014C55.4405 93.014 55.0341 92.6871 54.9334 92.2284C54.8327 91.7696 55.0648 91.3026 55.4912 91.1059L55.5399 91.0835C57.3744 90.2373 59.3132 89.343 61.2425 87.6424C61.9236 87.0421 62.525 86.4133 63.0779 85.7317C62.4069 86.1001 61.7057 86.4222 60.9678 86.6902C58.4757 87.5951 55.6327 87.8575 52.2128 87.2879C51.7307 87.2076 51.3772 86.7906 51.3771 86.3018C51.377 85.813 51.7303 85.3957 52.2124 85.3152C54.6343 84.9107 61.584 83.2417 67.8662 75.4373C71.7214 70.6479 74.3079 64.4745 76.1434 59.0754C75.0724 59.4139 73.9066 59.666 72.8975 59.8018C72.3959 59.8694 71.9229 59.5514 71.7961 59.0615C71.6692 58.5715 71.9284 58.0639 72.3998 57.8795C75.5008 56.6662 77.5853 54.6342 79.0119 52.6375C78.0662 53.003 76.9908 53.291 75.6191 53.508C75.1114 53.5882 74.6256 53.2706 74.4954 52.7734C74.3653 52.2762 74.6333 51.7613 75.1152 51.5826C77.419 50.7283 79.6607 49.0426 81.0807 47.1545C81.7935 46.2068 82.6818 44.5377 83.4675 42.7102C83.8901 41.7274 84.2699 40.7291 84.5695 39.8084C84.2319 39.9426 83.8849 40.068 83.5419 40.183C82.278 40.6066 80.8854 40.9475 79.8213 41.0759C79.3303 41.1351 78.8697 40.8265 78.7378 40.3498C78.6059 39.8732 78.8422 39.3717 79.2937 39.17C79.377 39.1328 79.4634 39.0947 79.5526 39.0554C81.124 38.3625 83.5915 37.2745 86.0944 33.5598C90.3902 27.184 93.573 20.0082 94.4862 15.1047C95.3526 10.4527 94.6794 7.1134 93.5437 4.87874C93.1042 4.01405 92.3186 3.01557 91.3702 2.24153C90.4095 1.45741 89.4027 1 88.5213 1C87.8781 1 87.1558 1.27347 86.239 1.92681C85.3198 2.58185 84.3064 3.54412 83.0857 4.77838C80.6792 7.21151 79.1968 9.01021 77.9073 10.6332C73.5075 16.1712 68.1824 23.5217 63.005 31.8248C54.745 45.0715 46.9116 60.8589 43.7992 76.4455C43.1618 79.6376 42.7141 82.8 42.5107 85.9422C42.483 86.3708 42.1847 86.7338 41.7697 86.8441C41.3546 86.9544 40.9155 86.7874 40.6786 86.4291C40.4379 86.065 40.1348 85.6821 39.7587 85.2822C39.8321 85.4207 39.9051 85.5608 39.9777 85.7023C41.1903 88.0653 42.358 90.9838 42.358 93.5123C42.358 93.9889 42.0217 94.3992 41.5544 94.4928C41.2804 94.5477 40.9293 94.5751 40.5266 94.5754C40.5853 94.5923 40.6442 94.6084 40.7033 94.6237C41.1725 94.7456 41.4867 95.1863 41.4489 95.6695C41.4199 96.0418 41.1882 96.3568 40.8628 96.5035Z" clip-rule="evenodd"/></svg>

<svg xmlns="http://www.w3.org/2000/svg" viewBox="0 0 128 128"><path fill-rule="evenodd" d="M41.493 98.589c-2.935 8.237-7.216 21.707-9.093 28.006-.15.5-.283.955-.4 1.359.416-.105.905-.439 1.28-.81.28-.278.497-.578.57-.818 2.849-9.269 7.627-24.153 13.765-40.623C53.04 71.147 59.543 55.355 66.73 41.097l.084-.166.112-.222c4.412-8.723 9.03-16.89 13.871-23.8l.077-.109c2.497-3.556 5-6.771 7.648-9.57-2.52 2.781-4.855 6.11-7.265 9.819l-.082.126c-4.536 6.996-9.127 15.292-13.363 23.983l-.102.21-.084.172C60.015 57.21 53.333 74.043 48.69 86.728a512.496 512.496 0 00-3.994 11.295l-.204.607c.584.213 1.253.832 1.886 1.611a15.556 15.556 0 011.678 2.584 7.485 7.485 0 00-2.23-5.02 8.431 8.431 0 00-.233-.225 39.228 39.228 0 001.417.032c5.39.011 10.48-1.263 13.675-5.323a13.367 13.367 0 001.573-2.56c-.737.885-1.47 1.427-2.222 1.76a5.793 5.793 0 01-1.63.439c-.696.09-1.418.088-2.18.086h-.316l.078-.036c.68-.313 1.39-.64 2.119-1.021 1.23-.643 2.516-1.436 3.797-2.564 1.391-1.227 2.463-2.56 3.44-4.15.475-.775.929-1.61 1.386-2.522a23.357 23.357 0 01-2.142 1.84c-2.529 1.901-5.392 3.07-9.13 3.026a20.206 20.206 0 01-3.08-.285 21.124 21.124 0 002.934-.717c3.422-1.09 8.573-3.607 13.333-9.52 4.148-5.154 6.84-11.822 8.7-17.426.148-.446.29-.885.429-1.317a8.46 8.46 0 01-1.232.56c-1.154.43-2.567.766-3.778.929a15.117 15.117 0 003.394-1.853c2.113-1.536 3.563-3.43 4.573-5.13a23.2 23.2 0 00.927-1.728c-.571.367-1.103.693-1.649.982l-.068.036c-1.221.639-2.52 1.093-4.478 1.402 1.382-.512 2.738-1.298 3.933-2.246a14.014 14.014 0 002.484-2.518c1.336-1.776 3.082-5.62 3.904-8.498.142-.5.257-.97.337-1.397-.277.232-.69.47-1.184.701-.409.192-.874.379-1.364.552-1.31.466-2.8.84-3.871.969l.254-.113c.826-.364 1.921-.847 3.147-1.75 1.192-.878 2.508-2.153 3.82-4.102 4.343-6.445 7.6-13.749 8.546-18.83.9-4.833.217-8.402-1.034-10.862C93.425 2.436 90.93 0 88.521 0c-1.878 0-3.706 1.608-6.146 4.075a67.798 67.798 0 00-5.25 5.936c-4.422 5.566-9.77 12.947-14.969 21.285C53.868 44.589 45.965 60.494 42.82 76.25a75.466 75.466 0 00-1.19 8.123 64.19 64.19 0 00-.116 1.505 9.465 9.465 0 00-.917-1.164c-.612-.668-1.393-1.363-2.373-2.08a27.62 27.62 0 00-2.191-1.438c.289.376.824 1.135 1.447 2.133 1.635 2.62 3.879 6.887 3.879 10.183-.602.12-1.946.084-3.483-.243a14.019 14.019 0 01-2.522-.782c.677.635 1.378 1.22 2.118 1.718.4.269.812.513 1.237.725a8.878 8.878 0 001.744.662 7.836 7.836 0 00-1.815.412c-.75.262-1.502.63-2.262 1.078-.991.585-1.996 1.304-3.034 2.1 1.178-.465 2.324-.871 3.429-1.17 1.425-.386 2.782-.592 4.05-.51.345.023.684.067 1.015.134l-.342.953zm-.63-2.085c.396.024.786.074 1.171.152a1 1 0 01.465.232c1.31-3.716 2.705-7.58 4.179-11.534 5.481-14.708 12.068-30.691 19.354-45.096 4.424-8.746 9.067-16.959 13.946-23.922 2.538-3.622 5.096-6.918 7.817-9.793a1 1 0 011.467 1.359c-2.466 2.72-4.765 5.994-7.168 9.692-4.571 7.037-9.21 15.42-13.485 24.21-7.626 15.68-14.326 32.555-18.98 45.267a517.908 517.908 0 00-3.391 9.53c4.931.123 9.447-.784 12.552-3.719-.862.138-1.731.135-2.554.133l-.326-.001a1 1 0 01-.419-1.908l.049-.022c1.834-.847 3.773-1.741 5.703-3.442.68-.6 1.282-1.229 1.835-1.91-.671.368-1.372.69-2.11.958-2.492.905-5.335 1.168-8.755.598a1 1 0 010-1.973c2.421-.404 9.371-2.073 15.653-9.878 3.855-4.79 6.442-10.962 8.277-16.362-1.07.339-2.236.591-3.246.727a1 1 0 01-.497-1.922c3.1-1.214 5.185-3.246 6.612-5.242-.946.365-2.021.653-3.393.87a1 1 0 01-.504-1.925c2.304-.855 4.546-2.54 5.966-4.428.712-.948 1.6-2.617 2.386-4.445.423-.983.803-1.98 1.103-2.902-.338.135-.685.26-1.028.375-1.264.424-2.657.764-3.72.893a1 1 0 01-.528-1.906l.259-.115c1.571-.693 4.038-1.78 6.541-5.495 4.296-6.376 7.479-13.552 8.392-18.455.867-4.652.193-7.992-.942-10.226-.44-.865-1.225-1.863-2.174-2.637C90.41 1.457 89.403 1 88.521 1c-.643 0-1.365.273-2.282.927-.92.655-1.933 1.617-3.153 2.851a66.816 66.816 0 00-5.179 5.855c-4.4 5.538-9.725 12.889-14.902 21.192-8.26 13.247-16.093 29.034-19.206 44.62-.637 3.193-1.085 6.355-1.288 9.497a1 1 0 01-1.832.487 8.645 8.645 0 00-.92-1.147l.219.42c1.212 2.363 2.38 5.282 2.38 7.81a1 1 0 01-.804.98 5.443 5.443 0 01-1.027.083l.176.049a1 1 0 01.16 1.88z" clip-rule="evenodd"/></svg>
